instance buffer Globals
{
    mat4 Transform;
}

vertex shader VS
{
    in vec2 VertexData;

    invariant gl_Position;

    void main()
    {
        gl_Position = Transform*vec4(VertexData.xy, 0.0, 1.0);
    }
}

fragment shader FS
{
    out vec4 FragmentColor;

    void main()
    {
        FragmentColor = vec4(1.0, 1.0, 1.0, 1.0);
    }
}

technique General
{
    pass P0
    {
        SetVertexShader(CompileShader(glsl_4_4_0, VS()));
        SetFragmentShader(CompileShader(glsl_4_4_0, FS()));
    }
}